assets/icons/informations/plantpot.svg

<svg viewBox="0 0 22 24" xmlns="http://www.w3.org/2000/svg">
<path d="M5.91 21.6C5.51 21.6 5.145 21.4875 4.815 21.2625C4.485 21.0375 4.27 20.745 4.17 20.385L2.61 14.85H18.99L17.43 20.385C17.33 20.745 17.115 21.0375 16.785 21.2625C16.455 21.4875 16.09 21.6 15.69 21.6H5.91ZM10.8 6.453C10.9 4.887 11.68 3.4425 13.14 2.1195C14.6 0.7965 16.21 0.09 17.97 0C17.91 1.458 17.24 2.8125 15.96 4.0635C14.68 5.3145 13.26 6.075 11.7 6.345V8.91H21.6V12.42C21.6 12.87 21.425 13.2525 21.075 13.5675C20.725 13.8825 20.3 14.04 19.8 14.04H1.8C1.3 14.04 0.875 13.8825 0.525 13.5675C0.175 13.2525 0 12.87 0 12.42V8.91H9.9V6.345C8.34 6.075 6.925 5.3145 5.655 4.0635C4.385 2.8125 3.71 1.458 3.63 0C5.39 0.09 7.005 0.792 8.475 2.106C9.945 3.42 10.72 4.869 10.8 6.453Z" fill="inherit"/>
</svg>

<svg viewBox="0 0 22 24" xmlns="http://www.w3.org/2000/svg"><path d="M6 21.6c-.5 0-.9-.1-1.2-.3-.3-.3-.5-.6-.6-1l-1.6-5.5H19l-1.6 5.6c0 .3-.3.6-.6.9-.3.2-.7.3-1.1.3H5.9Zm4.8-15.1c.1-1.6.9-3 2.3-4.4C14.6.8 16.2.1 18 0a6 6 0 0 1-2 4 8 8 0 0 1-4.3 2.3V9h9.9v3.5c0 .5-.2.9-.5 1.2-.4.3-.8.4-1.3.4h-18c-.5 0-1-.1-1.3-.4-.3-.3-.5-.7-.5-1.2V9h9.9V6.3a8 8 0 0 1-4.2-2.2 6.1 6.1 0 0 1-2-4.1C5.3 0 7 .8 8.4 2.1a6.2 6.2 0 0 1 2.3 4.4Z" fill="inherit"/></svg>
